bernoullicharts/pow_x_5_4__bound.svg

<?xml version="1.0" encoding="utf-8" standalone="no"?>
<!DOCTYPE svg PUBLIC "-//W3C//DTD SVG 1.1//EN"
  "http://www.w3.org/Graphics/SVG/1.1/DTD/svg11.dtd">
<!-- Created with matplotlib (https://matplotlib.org/) -->
<svg height="345.6pt" version="1.1" viewBox="0 0 460.8 345.6" width="460.8pt" xmlns="http://www.w3.org/2000/svg" xmlns:xlink="http://www.w3.org/1999/xlink">
 <defs>
  <style type="text/css">
*{stroke-linecap:butt;stroke-linejoin:round;}
  </style>
 </defs>
 <g id="figure_1">
  <g id="patch_1">
   <path d="M 0 345.6 
L 460.8 345.6 
L 460.8 0 
L 0 0 
z
" style="fill:#ffffff;"/>
  </g>
  <g id="axes_1">
   <g id="patch_2">
    <path d="M 57.6 307.584 
L 414.72 307.584 
L 414.72 41.472 
L 57.6 41.472 
z
" style="fill:#ffffff;"/>
   </g>
   <g id="matplotlib.axis_1">
    <g id="xtick_1">
     <g id="line2d_1">
      <defs>
       <path d="M 0 0 
L 0 3.5 
" id="mf3e4aa23d9" style="stroke:#000000;stroke-width:0.8;"/>
      </defs>
      <g>
       <use style="stroke:#000000;stroke-width:0.8;" x="73.800255" xlink:href="#mf3e4aa23d9" y="307.584"/>
      </g>
     </g>
     <g id="text_1">
      <text style="font-family:DejaVu Sans;font-size:10px;font-style:normal;font-weight:normal;text-anchor:middle;" transform="rotate(-0, 73.800255, 322.182437)" x="73.800255" y="322.182437">0.0</text>
     </g>
    </g>
    <g id="xtick_2">
     <g id="line2d_2">
      <g>
       <use style="stroke:#000000;stroke-width:0.8;" x="138.744153" xlink:href="#mf3e4aa23d9" y="307.584"/>
      </g>
     </g>
     <g id="text_2">
      <text style="font-family:DejaVu Sans;font-size:10px;font-style:normal;font-weight:normal;text-anchor:middle;" transform="rotate(-0, 138.744153, 322.182437)" x="138.744153" y="322.182437">0.2</text>
     </g>
    </g>
    <g id="xtick_3">
     <g id="line2d_3">
      <g>
       <use style="stroke:#000000;stroke-width:0.8;" x="203.688051" xlink:href="#mf3e4aa23d9" y="307.584"/>
      </g>
     </g>
     <g id="text_3">
      <text style="font-family:DejaVu Sans;font-size:10px;font-style:normal;font-weight:normal;text-anchor:middle;" transform="rotate(-0, 203.688051, 322.182437)" x="203.688051" y="322.182437">0.4</text>
     </g>
    </g>
    <g id="xtick_4">
     <g id="line2d_4">
      <g>
       <use style="stroke:#000000;stroke-width:0.8;" x="268.631949" xlink:href="#mf3e4aa23d9" y="307.584"/>
      </g>
     </g>
     <g id="text_4">
      <text style="font-family:DejaVu Sans;font-size:10px;font-style:normal;font-weight:normal;text-anchor:middle;" transform="rotate(-0, 268.631949, 322.182437)" x="268.631949" y="322.182437">0.6</text>
     </g>
    </g>
    <g id="xtick_5">
     <g id="line2d_5">
      <g>
       <use style="stroke:#000000;stroke-width:0.8;" x="333.575847" xlink:href="#mf3e4aa23d9" y="307.584"/>
      </g>
     </g>
     <g id="text_5">
      <text style="font-family:DejaVu Sans;font-size:10px;font-style:normal;font-weight:normal;text-anchor:middle;" transform="rotate(-0, 333.575847, 322.182437)" x="333.575847" y="322.182437">0.8</text>
     </g>
    </g>
    <g id="xtick_6">
     <g id="line2d_6">
      <g>
       <use style="stroke:#000000;stroke-width:0.8;" x="398.519745" xlink:href="#mf3e4aa23d9" y="307.584"/>
      </g>
     </g>
     <g id="text_6">
      <text style="font-family:DejaVu Sans;font-size:10px;font-style:normal;font-weight:normal;text-anchor:middle;" transform="rotate(-0, 398.519745, 322.182437)" x="398.519745" y="322.182437">1.0</text>
     </g>
    </g>
    <g id="text_7">
     <text style="font-family:DejaVu Sans;font-size:10px;font-style:normal;font-weight:normal;text-anchor:middle;" transform="rotate(-0, 236.16, 335.860562)" x="236.16" y="335.860562">Input Coin's Heads Probability (λ)</text>
    </g>
   </g>
   <g id="matplotlib.axis_2">
    <g id="ytick_1">
     <g id="line2d_7">
      <defs>
       <path d="M 0 0 
L -3.5 0 
" id="mff375871a6" style="stroke:#000000;stroke-width:0.8;"/>
      </defs>
      <g>
       <use style="stroke:#000000;stroke-width:0.8;" x="57.6" xlink:href="#mff375871a6" y="295.977557"/>
      </g>
     </g>
     <g id="text_8">
      <text style="font-family:DejaVu Sans;font-size:10px;font-style:normal;font-weight:normal;text-anchor:end;" transform="rotate(-0, 50.6, 299.776776)" x="50.6" y="299.776776">0</text>
     </g>
    </g>
    <g id="ytick_2">
     <g id="line2d_8">
      <g>
       <use style="stroke:#000000;stroke-width:0.8;" x="57.6" xlink:href="#mff375871a6" y="261.357512"/>
      </g>
     </g>
     <g id="text_9">
      <text style="font-family:DejaVu Sans;font-size:10px;font-style:normal;font-weight:normal;text-anchor:end;" transform="rotate(-0, 50.6, 265.156731)" x="50.6" y="265.156731">10</text>
     </g>
    </g>
    <g id="ytick_3">
     <g id="line2d_9">
      <g>
       <use style="stroke:#000000;stroke-width:0.8;" x="57.6" xlink:href="#mff375871a6" y="226.737467"/>
      </g>
     </g>
     <g id="text_10">
      <text style="font-family:DejaVu Sans;font-size:10px;font-style:normal;font-weight:normal;text-anchor:end;" transform="rotate(-0, 50.6, 230.536685)" x="50.6" y="230.536685">20</text>
     </g>
    </g>
    <g id="ytick_4">
     <g id="line2d_10">
      <g>
       <use style="stroke:#000000;stroke-width:0.8;" x="57.6" xlink:href="#mff375871a6" y="192.117421"/>
      </g>
     </g>
     <g id="text_11">
      <text style="font-family:DejaVu Sans;font-size:10px;font-style:normal;font-weight:normal;text-anchor:end;" transform="rotate(-0, 50.6, 195.91664)" x="50.6" y="195.91664">30</text>
     </g>
    </g>
    <g id="ytick_5">
     <g id="line2d_11">
      <g>
       <use style="stroke:#000000;stroke-width:0.8;" x="57.6" xlink:href="#mff375871a6" y="157.497376"/>
      </g>
     </g>
     <g id="text_12">
      <text style="font-family:DejaVu Sans;font-size:10px;font-style:normal;font-weight:normal;text-anchor:end;" transform="rotate(-0, 50.6, 161.296595)" x="50.6" y="161.296595">40</text>
     </g>
    </g>
    <g id="ytick_6">
     <g id="line2d_12">
      <g>
       <use style="stroke:#000000;stroke-width:0.8;" x="57.6" xlink:href="#mff375871a6" y="122.877331"/>
      </g>
     </g>
     <g id="text_13">
      <text style="font-family:DejaVu Sans;font-size:10px;font-style:normal;font-weight:normal;text-anchor:end;" transform="rotate(-0, 50.6, 126.676549)" x="50.6" y="126.676549">50</text>
     </g>
    </g>
    <g id="ytick_7">
     <g id="line2d_13">
      <g>
       <use style="stroke:#000000;stroke-width:0.8;" x="57.6" xlink:href="#mff375871a6" y="88.257285"/>
      </g>
     </g>
     <g id="text_14">
      <text style="font-family:DejaVu Sans;font-size:10px;font-style:normal;font-weight:normal;text-anchor:end;" transform="rotate(-0, 50.6, 92.056504)" x="50.6" y="92.056504">60</text>
     </g>
    </g>
    <g id="ytick_8">
     <g id="line2d_14">
      <g>
       <use style="stroke:#000000;stroke-width:0.8;" x="57.6" xlink:href="#mff375871a6" y="53.63724"/>
      </g>
     </g>
     <g id="text_15">
      <text style="font-family:DejaVu Sans;font-size:10px;font-style:normal;font-weight:normal;text-anchor:end;" transform="rotate(-0, 50.6, 57.436459)" x="50.6" y="57.436459">70</text>
     </g>
    </g>
    <g id="text_16">
     <text style="font-family:DejaVu Sans;font-size:10px;font-style:normal;font-weight:normal;text-anchor:middle;" transform="rotate(-90, 31.795312, 174.528)" x="31.795312" y="174.528">Coin Flips Needed</text>
    </g>
   </g>
   <g id="line2d_15">
    <path clip-path="url(#p91fadb6592)" d="M 73.832727 295.488 
L 77.112066 294.270524 
L 80.391405 293.961772 
L 83.670744 293.75938 
L 86.950083 293.606133 
L 90.229421 293.481962 
L 93.50876 293.377246 
L 96.788099 293.28656 
L 100.067438 293.206521 
L 103.346777 293.134864 
L 106.626116 293.06999 
L 109.905455 293.01073 
L 113.184793 292.956197 
L 116.464132 292.905702 
L 119.743471 292.858702 
L 123.02281 292.814755 
L 126.302149 292.773501 
L 129.581488 292.73464 
L 132.860826 292.69792 
L 136.140165 292.663129 
L 139.419504 292.630083 
L 142.698843 292.598624 
L 145.978182 292.568616 
L 149.257521 292.539938 
L 152.53686 292.512484 
L 155.816198 292.486162 
L 159.095537 292.460887 
L 162.374876 292.436586 
L 165.654215 292.413191 
L 168.933554 292.390643 
L 172.212893 292.368888 
L 175.492231 292.347875 
L 178.77157 292.327561 
L 182.050909 292.307904 
L 185.330248 292.288867 
L 188.609587 292.270415 
L 191.888926 292.252517 
L 195.168264 292.235144 
L 198.447603 292.218269 
L 201.726942 292.201866 
L 205.006281 292.185913 
L 208.28562 292.170388 
L 211.564959 292.155271 
L 214.844298 292.140544 
L 218.123636 292.126189 
L 221.402975 292.112189 
L 224.682314 292.09853 
L 227.961653 292.085198 
L 231.240992 292.072177 
L 234.520331 292.059457 
L 237.799669 292.047025 
L 241.079008 292.03487 
L 244.358347 292.02298 
L 247.637686 292.011348 
L 250.917025 291.999961 
L 254.196364 291.988813 
L 257.475702 291.977893 
L 260.755041 291.967195 
L 264.03438 291.95671 
L 267.313719 291.946432 
L 270.593058 291.936352 
L 273.872397 291.926466 
L 277.151736 291.916765 
L 280.431074 291.907245 
L 283.710413 291.8979 
L 286.989752 291.888724 
L 290.269091 291.879712 
L 293.54843 291.870859 
L 296.827769 291.86216 
L 300.107107 291.853611 
L 303.386446 291.845208 
L 306.665785 291.836945 
L 309.945124 291.82882 
L 313.224463 291.820827 
L 316.503802 291.812965 
L 319.78314 291.805228 
L 323.062479 291.797614 
L 326.341818 291.79012 
L 329.621157 291.782742 
L 332.900496 291.775476 
L 336.179835 291.768321 
L 339.459174 291.761274 
L 342.738512 291.754331 
L 346.017851 291.74749 
L 349.29719 291.740749 
L 352.576529 291.734105 
L 355.855868 291.727556 
L 359.135207 291.721099 
L 362.414545 291.714733 
L 365.693884 291.708455 
L 368.973223 291.702263 
L 372.252562 291.696155 
L 375.531901 291.690129 
L 378.81124 291.684184 
L 382.090579 291.678318 
L 385.369917 291.672528 
L 388.649256 291.666814 
L 391.928595 291.661173 
L 395.207934 291.655604 
L 398.487273 291.650106 
" style="fill:none;stroke:#1f77b4;stroke-linecap:square;stroke-width:1.5;"/>
   </g>
   <g id="line2d_16">
    <path clip-path="url(#p91fadb6592)" d="M 73.832727 53.568 
L 77.112066 258.075532 
L 80.391405 271.584273 
L 83.670744 277.054241 
L 86.950083 275.44787 
L 90.229421 278.577523 
L 93.50876 281.097862 
L 96.788099 281.693327 
L 100.067438 282.295715 
L 103.346777 282.572676 
L 106.626116 282.9258 
L 109.905455 283.652821 
L 113.184793 284.899143 
L 116.464132 283.604353 
L 119.743471 285.466912 
L 123.02281 285.356127 
L 126.302149 284.476778 
L 129.581488 285.910048 
L 132.860826 286.353185 
L 136.140165 286.588601 
L 139.419504 286.470893 
L 142.698843 286.353185 
L 145.978182 285.764644 
L 149.257521 286.062376 
L 152.53686 286.581677 
L 155.816198 286.858637 
L 159.095537 285.709252 
L 162.374876 286.429349 
L 165.654215 286.962498 
L 168.933554 287.073282 
L 172.212893 286.914029 
L 175.492231 287.142522 
L 178.77157 287.57181 
L 182.050909 287.613354 
L 185.330248 287.377938 
L 188.609587 287.737987 
L 191.888926 287.557962 
L 195.168264 287.67567 
L 198.447603 287.911087 
L 201.726942 287.495646 
L 205.006281 287.50257 
L 208.28562 288.049567 
L 211.564959 287.952631 
L 214.844298 287.918011 
L 218.123636 287.57181 
L 221.402975 288.222667 
L 224.682314 287.855695 
L 227.961653 287.890315 
L 231.240992 288.451159 
L 234.520331 288.527324 
L 237.799669 288.381919 
L 241.079008 288.319603 
L 244.358347 288.465007 
L 247.637686 288.416539 
L 250.917025 288.381919 
L 254.196364 288.298831 
L 257.475702 288.229591 
L 260.755041 288.437311 
L 264.03438 288.298831 
L 267.313719 288.679652 
L 270.593058 288.575792 
L 273.872397 288.859676 
L 277.151736 288.65888 
L 280.431074 288.492704 
L 283.710413 288.513476 
L 286.989752 288.395767 
L 290.269091 288.541172 
L 293.54843 288.721196 
L 296.827769 288.679652 
L 300.107107 288.55502 
L 303.386446 288.76274 
L 306.665785 288.651956 
L 309.945124 288.596564 
L 313.224463 288.79736 
L 316.503802 288.79736 
L 319.78314 288.783512 
L 323.062479 288.845828 
L 326.341818 288.741968 
L 329.621157 288.610412 
L 332.900496 288.783512 
L 336.179835 288.949688 
L 339.459174 288.804284 
L 342.738512 288.790436 
L 346.017851 289.00508 
L 349.29719 288.949688 
L 352.576529 288.984308 
L 355.855868 288.93584 
L 359.135207 288.949688 
L 362.414545 288.90122 
L 365.693884 288.783512 
L 368.973223 288.963536 
L 372.252562 289.012004 
L 375.531901 288.949688 
L 378.81124 289.053548 
L 382.090579 289.032776 
L 385.369917 288.998156 
L 388.649256 289.081244 
L 391.928595 289.032776 
L 395.207934 289.046624 
L 398.487273 289.046624 
" style="fill:none;stroke:#ff7f0e;stroke-linecap:square;stroke-width:1.5;"/>
   </g>
   <g id="patch_3">
    <path d="M 57.6 307.584 
L 57.6 41.472 
" style="fill:none;stroke:#000000;stroke-linecap:square;stroke-linejoin:miter;stroke-width:0.8;"/>
   </g>
   <g id="patch_4">
    <path d="M 414.72 307.584 
L 414.72 41.472 
" style="fill:none;stroke:#000000;stroke-linecap:square;stroke-linejoin:miter;stroke-width:0.8;"/>
   </g>
   <g id="patch_5">
    <path d="M 57.6 307.584 
L 414.72 307.584 
" style="fill:none;stroke:#000000;stroke-linecap:square;stroke-linejoin:miter;stroke-width:0.8;"/>
   </g>
   <g id="patch_6">
    <path d="M 57.6 41.472 
L 414.72 41.472 
" style="fill:none;stroke:#000000;stroke-linecap:square;stroke-linejoin:miter;stroke-width:0.8;"/>
   </g>
   <g id="text_17">
    <text style="font-family:DejaVu Sans;font-size:12px;font-style:normal;font-weight:normal;text-anchor:middle;" transform="rotate(-0, 236.16, 35.472)" x="236.16" y="35.472">Coin Flips for pow(x,5/4)</text>
   </g>
   <g id="legend_1">
    <g id="patch_7">
     <path d="M 226.915312 78.82825 
L 407.72 78.82825 
Q 409.72 78.82825 409.72 76.82825 
L 409.72 48.472 
Q 409.72 46.472 407.72 46.472 
L 226.915312 46.472 
Q 224.915312 46.472 224.915312 48.472 
L 224.915312 76.82825 
Q 224.915312 78.82825 226.915312 78.82825 
z
" style="fill:#ffffff;opacity:0.8;stroke:#cccccc;stroke-linejoin:miter;"/>
    </g>
    <g id="line2d_17">
     <path d="M 228.915312 54.570437 
L 248.915312 54.570437 
" style="fill:none;stroke:#1f77b4;stroke-linecap:square;stroke-width:1.5;"/>
    </g>
    <g id="line2d_18"/>
    <g id="text_18">
     <text style="font-family:DejaVu Sans;font-size:10px;font-style:normal;font-weight:normal;text-anchor:start;" transform="rotate(-0, 256.915313, 58.070437)" x="256.915313" y="58.070437">Coin Flip Lower Bound</text>
    </g>
    <g id="line2d_19">
     <path d="M 228.915312 69.248562 
L 248.915312 69.248562 
" style="fill:none;stroke:#ff7f0e;stroke-linecap:square;stroke-width:1.5;"/>
    </g>
    <g id="line2d_20"/>
    <g id="text_19">
     <text style="font-family:DejaVu Sans;font-size:10px;font-style:normal;font-weight:normal;text-anchor:start;" transform="rotate(-0, 256.915313, 72.748562)" x="256.915313" y="72.748562">Avg. Coins Flipped pow(x,5/4)</text>
    </g>
   </g>
  </g>
 </g>
 <defs>
  <clipPath id="p91fadb6592">
   <rect height="266.112" width="357.12" x="57.6" y="41.472"/>
  </clipPath>
 </defs>
</svg>

<svg height="460.8" viewBox="0 0 460.8 345.6" width="614.4" xmlns="http://www.w3.org/2000/svg" xmlns:xlink="http://www.w3.org/1999/xlink"><defs><style>*{stroke-linecap:butt;stroke-linejoin:round}</style></defs><g id="figure_1"><path d="M0 345.6h460.8V0H0z" fill="#fff" id="patch_1"/><g id="axes_1"><path d="M57.6 307.584h357.12V41.472H57.6z" fill="#fff" id="patch_2"/><g id="matplotlib.axis_1"><g id="xtick_1"><g id="line2d_1"><defs><path d="M0 0v3.5" id="mf3e4aa23d9" stroke="#000" stroke-width=".8"/></defs><use x="73.8" xlink:href="#mf3e4aa23d9" y="307.584" stroke="#000" stroke-width=".8"/></g><text x="73.8" y="322.182" font-family="DejaVu Sans" font-size="10" font-weight="400" text-anchor="middle" id="text_1">0.0</text></g><g id="xtick_2"><use x="138.744" xlink:href="#mf3e4aa23d9" y="307.584" stroke="#000" stroke-width=".8" id="line2d_2"/><text x="138.744" y="322.182" font-family="DejaVu Sans" font-size="10" font-weight="400" text-anchor="middle" id="text_2">0.2</text></g><g id="xtick_3"><use x="203.688" xlink:href="#mf3e4aa23d9" y="307.584" stroke="#000" stroke-width=".8" id="line2d_3"/><text x="203.688" y="322.182" font-family="DejaVu Sans" font-size="10" font-weight="400" text-anchor="middle" id="text_3">0.4</text></g><g id="xtick_4"><use x="268.632" xlink:href="#mf3e4aa23d9" y="307.584" stroke="#000" stroke-width=".8" id="line2d_4"/><text x="268.632" y="322.182" font-family="DejaVu Sans" font-size="10" font-weight="400" text-anchor="middle" id="text_4">0.6</text></g><g id="xtick_5"><use x="333.576" xlink:href="#mf3e4aa23d9" y="307.584" stroke="#000" stroke-width=".8" id="line2d_5"/><text x="333.576" y="322.182" font-family="DejaVu Sans" font-size="10" font-weight="400" text-anchor="middle" id="text_5">0.8</text></g><g id="xtick_6"><use x="398.52" xlink:href="#mf3e4aa23d9" y="307.584" stroke="#000" stroke-width=".8" id="line2d_6"/><text x="398.52" y="322.182" font-family="DejaVu Sans" font-size="10" font-weight="400" text-anchor="middle" id="text_6">1.0</text></g><text x="236.16" y="335.861" font-family="DejaVu Sans" font-size="10" font-weight="400" text-anchor="middle" id="text_7">Input Coin&apos;s Heads Probability (λ)</text></g><g id="matplotlib.axis_2"><g id="ytick_1"><g id="line2d_7"><defs><path d="M0 0h-3.5" id="mff375871a6" stroke="#000" stroke-width=".8"/></defs><use x="57.6" xlink:href="#mff375871a6" y="295.978" stroke="#000" stroke-width=".8"/></g><text x="50.6" y="299.777" font-family="DejaVu Sans" font-size="10" font-weight="400" text-anchor="end" id="text_8">0</text></g><g id="ytick_2"><use x="57.6" xlink:href="#mff375871a6" y="261.358" stroke="#000" stroke-width=".8" id="line2d_8"/><text x="50.6" y="265.157" font-family="DejaVu Sans" font-size="10" font-weight="400" text-anchor="end" id="text_9">10</text></g><g id="ytick_3"><use x="57.6" xlink:href="#mff375871a6" y="226.737" stroke="#000" stroke-width=".8" id="line2d_9"/><text x="50.6" y="230.537" font-family="DejaVu Sans" font-size="10" font-weight="400" text-anchor="end" id="text_10">20</text></g><g id="ytick_4"><use x="57.6" xlink:href="#mff375871a6" y="192.117" stroke="#000" stroke-width=".8" id="line2d_10"/><text x="50.6" y="195.917" font-family="DejaVu Sans" font-size="10" font-weight="400" text-anchor="end" id="text_11">30</text></g><g id="ytick_5"><use x="57.6" xlink:href="#mff375871a6" y="157.497" stroke="#000" stroke-width=".8" id="line2d_11"/><text x="50.6" y="161.297" font-family="DejaVu Sans" font-size="10" font-weight="400" text-anchor="end" id="text_12">40</text></g><g id="ytick_6"><use x="57.6" xlink:href="#mff375871a6" y="122.877" stroke="#000" stroke-width=".8" id="line2d_12"/><text x="50.6" y="126.677" font-family="DejaVu Sans" font-size="10" font-weight="400" text-anchor="end" id="text_13">50</text></g><g id="ytick_7"><use x="57.6" xlink:href="#mff375871a6" y="88.257" stroke="#000" stroke-width=".8" id="line2d_13"/><text x="50.6" y="92.057" font-family="DejaVu Sans" font-size="10" font-weight="400" text-anchor="end" id="text_14">60</text></g><g id="ytick_8"><use x="57.6" xlink:href="#mff375871a6" y="53.637" stroke="#000" stroke-width=".8" id="line2d_14"/><text x="50.6" y="57.436" font-family="DejaVu Sans" font-size="10" font-weight="400" text-anchor="end" id="text_15">70</text></g><text transform="rotate(-90 31.795 174.528)" x="31.795" y="174.528" font-family="DejaVu Sans" font-size="10" font-weight="400" text-anchor="middle" id="text_16">Coin Flips Needed</text></g><path clip-path="url(#p91fadb6592)" d="M73.833 295.488l3.28-1.217 3.278-.31 3.28-.202 3.28-.153 3.278-.124 3.28-.105 3.28-.09 3.278-.08 3.28-.072 3.28-.065 3.278-.06 3.28-.054 3.28-.05 3.278-.047 3.28-.044 3.28-.041 3.278-.04 3.28-.036 3.28-.035 3.279-.033 3.279-.031 3.28-.03 3.279-.03 3.279-.027 3.28-.026 3.279-.025 3.279-.024 3.28-.024 3.279-.022 3.279-.022 3.28-.021 3.279-.02 3.279-.02 3.28-.02 3.279-.018 3.279-.017 3.28-.018 3.279-.017 3.279-.016 3.28-.016 3.279-.016 3.279-.015 3.28-.014 3.279-.015 3.279-.014 3.28-.013 3.279-.014 3.279-.013 3.28-.013 3.279-.012 3.279-.012 3.28-.012 3.279-.012 3.279-.011 3.28-.011 3.279-.011 3.279-.01 3.28-.011 3.279-.01 3.28-.01 3.278-.01 3.28-.01 3.28-.01 3.278-.01 3.28-.008 3.28-.01 3.278-.008 3.28-.009 3.28-.008 3.278-.009 3.28-.008 3.28-.008 3.278-.008 3.28-.008 3.28-.008 3.278-.007 3.28-.008 3.28-.007 3.278-.008 3.28-.007 3.28-.007 3.279-.007 3.279-.007 3.28-.006 3.279-.007 3.279-.006 3.28-.007 3.279-.006 3.279-.007 3.28-.006 3.279-.006 3.279-.006 3.28-.006 3.279-.006 3.279-.005 3.28-.006 3.279-.006 3.279-.005 3.28-.006" fill="none" stroke="#1f77b4" stroke-linecap="square" stroke-width="1.5" id="line2d_15"/><path clip-path="url(#p91fadb6592)" d="M73.833 53.568l3.28 204.508 3.278 13.508 3.28 5.47 3.28-1.606 3.278 3.13 3.28 2.52 3.28.595 3.278.603 3.28.277 3.28.353 3.278.727 3.28 1.246 3.28-1.295 3.278 1.863 3.28-.11 3.28-.88 3.278 1.433 3.28.443 3.28.236 3.279-.118 3.279-.118 3.28-.588 3.279.297 3.279.52 3.28.277 3.279-1.15 3.279.72 3.28.533 3.279.111 3.279-.159 3.28.229 3.279.429 3.279.041 3.28-.235 3.279.36 3.279-.18 3.28.118 3.279.235 3.279-.415 3.28.007 3.279.547 3.279-.097 3.28-.035 3.279-.346 3.279.65 3.28-.366 3.279.034 3.279.561 3.28.076 3.279-.145 3.279-.062 3.28.145 3.279-.048 3.279-.035 3.28-.083 3.279-.07 3.279.208 3.28-.138 3.279.38 3.28-.103 3.278.284 3.28-.201 3.28-.166 3.278.02 3.28-.117 3.28.145 3.278.18 3.28-.041 3.28-.125 3.278.208 3.28-.111 3.28-.055 3.278.2h3.28l3.28-.013 3.278.062 3.28-.104 3.28-.132 3.278.174 3.28.166 3.28-.146 3.279-.014 3.279.215 3.28-.055 3.279.034 3.279-.048 3.28.014 3.279-.049 3.279-.117 3.28.18 3.279.048 3.279-.062 3.28.104 3.279-.021 3.279-.035 3.28.083 3.279-.048 3.279.014h3.28" fill="none" stroke="#ff7f0e" stroke-linecap="square" stroke-width="1.5" id="line2d_16"/><path d="M57.6 307.584V41.472" fill="none" stroke="#000" stroke-linecap="square" stroke-width=".8" id="patch_3"/><path d="M414.72 307.584V41.472" fill="none" stroke="#000" stroke-linecap="square" stroke-width=".8" id="patch_4"/><path d="M57.6 307.584h357.12" fill="none" stroke="#000" stroke-linecap="square" stroke-width=".8" id="patch_5"/><path d="M57.6 41.472h357.12" fill="none" stroke="#000" stroke-linecap="square" stroke-width=".8" id="patch_6"/><text x="236.16" y="35.472" font-family="DejaVu Sans" font-size="12" font-weight="400" text-anchor="middle" id="text_17">Coin Flips for pow(x,5/4)</text><g id="legend_1"><path d="M226.915 78.828H407.72q2 0 2-2V48.472q0-2-2-2H226.915q-2 0-2 2v28.356q0 2 2 2z" fill="#fff" opacity=".8" stroke="#ccc" id="patch_7"/><path d="M228.915 54.57h20" fill="none" stroke="#1f77b4" stroke-linecap="square" stroke-width="1.5" id="line2d_17"/><text x="256.915" y="58.07" font-family="DejaVu Sans" font-size="10" font-weight="400" id="text_18">Coin Flip Lower Bound</text><path d="M228.915 69.249h20" fill="none" stroke="#ff7f0e" stroke-linecap="square" stroke-width="1.5" id="line2d_19"/><text x="256.915" y="72.749" font-family="DejaVu Sans" font-size="10" font-weight="400" id="text_19">Avg. Coins Flipped pow(x,5/4)</text></g></g></g><defs><clipPath id="p91fadb6592"><path d="M57.6 41.472h357.12v266.112H57.6z"/></clipPath></defs></svg>
